X: 1372
T: the Grey Daylight
R: reel
O: McNamara
B: O'Neill's 1850 #1372
Z: Trish O'Neil
Z: Compacted via repeats and multiple endings [JC]
M: C|
L: 1/8
K: D
(A/G/F/E/) !segno!|: D2(FA) DAFA | A,2(CE) A,ECE |\
D2(FA) DAFA |[1 (3(Bcd) (3(cde) dBAF :|[2 (3(Bcd) (3(cde) dfec |]
|:\
d2(fd) gdfd | (3(BBB) (ed) cABc |\
[1 (3(ddd) (fd) gdfd | (3(Bcd) (3(cde) dfec :|\
[2 defg abag | fdec dBA!segno!F |]
